src/assets/img/svg_sources/icon_dribbble.svg

<svg width="30" height="30" viewBox="0 0 30 30" fill="none" xmlns="http://www.w3.org/2000/svg">
<rect width="30" height="30" fill="white"/>
<path fill-rule="evenodd" clip-rule="evenodd" d="M15 30C23.2843 30 30 23.2843 30 15C30 6.71573 23.2843 0 15 0C6.71573 0 0 6.71573 0 15C0 23.2843 6.71573 30 15 30ZM17.5518 15.8122C19.7455 15.4612 21.6728 16.036 21.9124 16.1115C21.6003 18.0592 20.4823 19.7414 18.9117 20.8032C18.84 20.3774 18.4674 18.3282 17.5518 15.8122ZM16.1954 16.1513C16.2108 16.1459 16.2261 16.141 16.2415 16.1357C17.2244 18.6895 17.6308 20.8298 17.735 21.444C16.8944 21.8019 15.9702 22.0003 15.0005 22.0003C13.3821 22.0003 11.8904 21.4481 10.7035 20.5226C10.8295 20.2651 12.2469 17.5271 16.1954 16.1513ZM14.6196 12.7135C11.3451 13.583 8.46106 13.5705 8.14795 13.5664C8.60189 11.3943 10.0658 9.58895 12.0242 8.66527C12.2088 8.91833 13.4598 10.6518 14.6196 12.7135ZM16.9747 14.3475C16.8293 14.0062 16.6732 13.667 16.5103 13.3336C19.0985 12.2769 20.2716 10.7732 20.4192 10.5736C21.3941 11.7647 21.9845 13.2819 22 14.9341C21.7692 14.8853 19.4548 14.4159 17.1255 14.7088C17.0764 14.5889 17.0262 14.4685 16.9747 14.3475ZM15.4898 15.0615C11.8795 16.2284 9.95826 19.4092 9.79965 19.6807C8.6816 18.4397 8 16.7983 8 15.0004C8 14.9288 8.00143 14.8576 8.00359 14.7865C8.3099 14.7927 11.7023 14.8365 15.1982 13.7903C15.3986 14.1825 15.59 14.5806 15.7657 14.9782C15.6731 15.0043 15.5811 15.032 15.4898 15.0615ZM19.641 9.76414C19.5151 9.94348 18.4613 11.3598 15.972 12.2927C14.8249 10.1853 13.5535 8.45399 13.36 8.19493C13.8864 8.06805 14.4356 8.00029 15.0005 8.00029C16.7792 8.00029 18.4048 8.66742 19.641 9.76414Z" fill="#929191"/>
</svg>

<svg width="30" height="30" viewBox="0 0 30 30" fill="none" xmlns="http://www.w3.org/2000/svg"><path fill="#fff" d="M0 0h30v30H0z"/><path fill-rule="evenodd" clip-rule="evenodd" d="M15 30c8.284 0 15-6.716 15-15 0-8.284-6.716-15-15-15C6.716 0 0 6.716 0 15c0 8.284 6.716 15 15 15zm2.552-14.188c2.194-.35 4.12.224 4.36.3a7.012 7.012 0 0 1-3 4.691c-.072-.426-.445-2.475-1.36-4.99zm-1.357.34l.046-.016c.983 2.553 1.39 4.694 1.494 5.308a6.964 6.964 0 0 1-2.734.556 6.966 6.966 0 0 1-4.297-1.477c.125-.258 1.543-2.996 5.491-4.372zm-1.575-3.439c-3.275.87-6.159.857-6.472.853a7.026 7.026 0 0 1 3.876-4.9 44.63 44.63 0 0 1 2.596 4.047zm2.355 1.635a21.603 21.603 0 0 0-.465-1.014c2.588-1.057 3.762-2.56 3.91-2.76a6.967 6.967 0 0 1 1.58 4.36c-.23-.049-2.545-.518-4.875-.225l-.15-.361zm-1.485.713c-3.61 1.167-5.532 4.348-5.69 4.62a6.972 6.972 0 0 1-1.796-4.895c.306.007 3.698.05 7.194-.996.2.393.392.79.568 1.188a7.627 7.627 0 0 0-.276.084zm4.151-5.297c-.126.18-1.18 1.596-3.669 2.529a37.363 37.363 0 0 0-2.612-4.098 6.993 6.993 0 0 1 6.281 1.57z" fill="#929191"/></svg>
